X:427
T:Conal Gathering, The 
C:Joe Buchanan's Scottish Tome - Page 390.0
I:390 0
C:P.M. John MacLenan
Z:Carl Allison
R:March
L:1/8
M:2/4
K:A
e/>c/ | "Aa"A/>A/A/>B/ "Ee"c/<A/c/>d/ | "Aa"e/>A/f/>e/         "Dd"de/>d/ | "Aa"cA/>c/ "E0"c/<e/A/>c/ | "Bb7"e/>A/d/>c/ "E7"B/<B/e/>c/  |
"Aa"A/>A/A/>B/ "Ee"c/<A/c/>d/ | "C#"e/>g/"A7"/f/<a/ "D"de/>f/  | "Aa"cA/>c/     "E7"e/>f/d/>B/ | "Aa"A>A         "Aa"A          :|
c/>d/ | "Aa"e/>A/c/<e/ "Ee"ac/>d/     | "Aa"e/>A/f/>e/     "D"de/>d/  | "Aa"c/<A/c/>d/ "E0"eA/>c/     | "B7"e/>A/d/>c/  "E7"B/<B/c/>d/  |
"Aa"e/>A/c/<e/ "Ee"ac/>d/     | "C#"e/>g/"A7"f/<a/ "D"de/>f/  | "Aa"cA/>c/     "E7"e/>f/d/>B/ | "Aa"A>A         "Aa"Ac/>d/      |
"Aa"e/>A/c/<e/ "Ee"ac/>d/     | "Aa"e/>A/f/>e/     "D"de/>d/  | "Aa"c/<A/c/>d/ "E0"eA/>c/     | "B7"e/>A/d/>c/  "E7"B/<B/e/>c/  |
"Aa"A/>A/A/>B/ "Ee"c/<A/c/>d/ | "C#"e/>g/"A7"f/<a/ "D"de/>f/  | "Aa"cA/>c/     "E7"e/>f/d/>B/ | "Aa"A>A         "Aa"A          :|
e/>c/ | "Aa"A/>A/A/>B/ "Ee"c/>e/A/>c/ | "Aa"f/>A/e/>f/     "D"de/>d/  | "Aa"cA/>c/     "E0"c/<e/A/>c/ | "B7"e/>A/d/>c/  "E7"B/<B/e/>c/  |
"Aa"A/>A/A/>B/ "Ee"c/<e/A/>c/ | "C#"e/>g/"A7"f/<a/ "D"de/>f/  | "Aa"cA/>c/     "E7"e/>f/d/>B/ | "Aa"A>A         "Aa"A          :|
c/>d/ | "Aa"e/>A/c/<e/ "Ee"a/>A/c/>d/ | "Dd"f/>A/d/<f/     "D"ec/>d/  | "Aa"e/<A/c/<e/ "E0"a/>A/c/>e/ | "B7"e/>A/d/>c/  "E7"B/<B/c/>d/  |
"Aa"e/>A/c/<e/ "Ee"a/>A/c/>d/ | "C#"e/>g/"A7"f/<a/ "D"de/>f/  | "Aa"cA/>c/     "E7"e/>f/d/>B/ | "Aa"A>A         "Aa"Ac/>d/      |
"Aa"e/>A/c/<e/ "Ee"a/>A/c/>d/ | "Dd"f/>A/d/>f/     "C#"ec/>d/ | "Aa"e/>A/c/<e/ "E0"a/>A/c/>e/ | "B7"e/>A/d/>c/  "E7"B/<B/e/>d/  |
"Aa"c/<e/e/>A/ "Ee"cA/>c/     | "C#"e/>g/"A7"f/<a/ "D"de/>f/  | "Aa"cA/>c/     "E7"e/>f/d/>B/ | "Aa"A>A         "Aa"A           |]

